src/pos-icons/calendar-outline.svg

<svg height="24" viewBox="0 0 24 24" width="24" xmlns="http://www.w3.org/2000/svg"><path d="m19 4h-1v-2h-2v2h-8v-2h-2v2h-1c-1.11 0-2 .9-2 2v14a2 2 0 0 0 2 2h14a2 2 0 0 0 2-2v-14a2 2 0 0 0 -2-2m0 16h-14v-10h14zm0-12h-14v-2h14zm-7 5h5v5h-5z"/></svg>

<?xml version="1.0" encoding="UTF-8"?><!DOCTYPE svg PUBLIC "-//W3C//DTD SVG 1.1//EN" "http://www.w3.org/Graphics/SVG/1.1/DTD/svg11.dtd"><svg xmlns="http://www.w3.org/2000/svg" xmlns:xlink="http://www.w3.org/1999/xlink" version="1.1" id="mdi-calendar-outline" width="24" height="24" viewBox="0 0 24 24"><path d="M19,4H18V2H16V4H8V2H6V4H5C3.89,4 3,4.9 3,6V20A2,2 0 0,0 5,22H19A2,2 0 0,0 21,20V6A2,2 0 0,0 19,4M19,20H5V10H19V20M19,8H5V6H19V8M12,13H17V18H12V13Z" /></svg>
